X: 22655
T: Lake House
R: polka
M: 2/4
K: Adorian
"Am"A>B cA|GA "Em"EG|"Am"A>B cA|"G"dB/d/ "Em"e2|
"Am"A>B cA|GA "Em"EG|"Am"AB/c/ BA|1 "G"G>A BG:|2 "G"G>D "D"EF||
|:"G"G>A BG|"C"EG "D"DE|"G"G>A BG|"Em"dG "C"ed|
"G"G>A BG|"C"EG "D"DE|"G"GA/c/ BG|1 "Am"A>c BA:|2 "Am"Ae/d/ "Em"cB||

